!! 00015] TT[TB
!! Zh. Ch. 1-4447, 600834), J 3761)
!!!OTL: Dui hua
!!!ARE: Asia, China, Shanxi Shanbei
!! Ethnic Group: Han
!! NN
!!!SCT: C0673
!!!YEM: Copyright 1995, estate of Helmut Schaffrath.
**kern
*ICvox
*Ivox
*M2/4
*k[b-]
*F:
{8ff
8dd
4cc
=1
8dd
16ff
16dd
4cc
=2
8dd
8ff
4cc
=3
8ff
8dd
4cc}
=4
{8a
4cc
8dd
=5
8.cc
16dd
8a
8g
=6
2a
=7
8.cc
16cc
8g
8f
=8
4c
4r}
=9
{8ff
8dd
4cc
=10
8dd
16ff
16dd
4cc
=11
8dd
8ff
4cc
=12
8ff
8dd
4cc}
=13
{8a
8cc
8.a
16g
=14
8a
8g
8.a
16g
=15
8a
8g
8a
8g
=16
8a
8g
[4a
=17
2a]
=18
8cc
8cc
8g
8f
=19
4c
4r}
=20
{8cc
8ff
8ff
8dd
=21
4cc
4r}
=22
{8cc
8ff
8ff
8dd
=23
4cc
4r}
=24
{8cc
8ff
8ff
8dd
=25
8ff
8dd
4cc}
=26
{8cc
8ff
8ff
8dd
=27
8ff
8dd
4cc}
=28
{8ff
8dd
4cc
=29
8a
8dd
4cc}
=30
{8a
8dd
4cc
=31
8ee
8dd
4cc}
=32
{8cc
8ff
8ff
8dd
=33
4cc
4cc
=34
4cc
4cc}
=35
{8dd
8cc
8a
8g
=36
4.f
8g
=37
8.a
16a
8a
8cc
=38
8.g
16a
8g
8f
=39
2d
=40
2c}
==
!!!AGN: Xiaodiao. Xin minge
!! Notenbeilage kopiert. DOUBLETTE?
!!    Diese Sammlung enthaelt mit Stand 1987 wenigstens 32 Aufnahmen
!!    mit dem Titel "Dui hua"
!!    Ein- bis zweistimmig!!! Kodiert ist die Oberstimme.
!!    Vereinzelt Verzierungen, Fermaten.
!!!ONB: ESAC (Essen Associative Code) Database: CHINA
!!!AMT: simple duple
!!!AIN: vox
!!!EED: Helmut Schaffrath
!!!EEV: 1.0
*-
!!!ONB: Tied note syntax fixed by Craig Sapp, 2004/05/03/
